X: 3
T: Timothy Clifford's Jig
S: Portland Collection v.2
R: jig
Z: 2019 John Chambers <jc:trillian.mit.edu>
M: 6/8
L: 1/8
K: G
|:\
"G"G,B,D E2D | DB,D G3 | G,B,D "Am"C2B | "D7"AGF "G"FDB, |\
"G"G,B,D E2D | DB,D GBc | ~d3 ~B2 | "D7"AGF [1 "G"GDB, :|[2 "G"G ||
|: Bd |\
"C"~e3 "D"~d3 | "G"BAG GBd | "C"ege d2B | "Am"BAG "D7"Agf |\
"C"~e3 "D"~d3 | "G"BAG GAB | "Am"cec "G"BdB | "D7"AGF [1 "G"G :|[2 "G"G3 |]

